X: 21
T: John Bull's Dream
%R: jig
B: "Twenty Four Country Dances with Figures for the Year 1809", Button & Whitaker, p.11 #1
F: http://www.vwml.org/browse/browse-collections-dance-tune-books/browse-button1809
Z: 2014 John Chambers <jc:trillian.mit.edu>
M: 6/8
L: 1/8
K: Bb
%%slurgraces 1
%%graceslurs 1
% - - - - - - - - - - - - - - - - - - - - - - - - - - - - -
(f/e/) |\
(dfb) (fdB) | (GcB) (ABc) | (Bcd) (efg) | (fdB) (AGF) |\
(dfb) (fdB) | (GcB) (ABc) | (Bcd) (efg) |[1 (de)c B2 :|[2 (dec) B3 ||
|:\
e2d (dcB) | e2d (dcB) | (Gc)c c2B | (Ac)c c2d |\
{f}e2d (dcB) | {f}e2d (dcB) | (Gc).c c2B | ABc B3 :|
% - - - - - - - - - - Dance description - - - - - - - - - -
%%begintext align
%% Change sides, back again, down the mid:
%% up again, hands 4 round.
%%endtext

%%sep 1 1 500
%%sep 1 1 500
